X:1
T:Hark! ’Tis the Clarion
T:From Gaetano Donizetti (1797-1848)
T:Hark! ’Tis the Clarion
T:Public Domain
T:Public Domain
T:Public Domain
C:From Gaetano Donizetti (1797-1848)
Z:Public Domain
%%score ( 1 2 ) ( 3 4 )
L:1/8
M:4/4
K:G
V:1 treble 
V:2 treble 
V:3 bass 
V:4 bass 
V:1
 D2 [DG]>[DB] [Gd]2 [Gd]2 | [Ge]2 [Gd]>[GB] [DG]4 | [CB]2 [CA]>[CF] [CD]2 [CD]2 | E4 D4 | %4
w: 1.~Hark! ’tis the clar- ion|ing the fight, Turn|from each si- ren charm-|er. Ban-|
w: 2.~Haste to the res- cue;|in their need Loud|for re- lief are call-|ing; Must|
w: 3.~Soon ’twill be o- ver,|ger all past; End-|ed the march- es drear-|y. Af-|
 D2 [DG]>[DB] [Gd]2 [Gd]2 | [Ge]2 [Gd]>[GB] [DG]4 | [FA]2 [^E^G]>[FA] [Fc]2 [DF]2 | [FA]4 G4 | %8
w: wav- ing, swords gleam- ing|Gird on the heav’n-|ly ar- mor. Stern is|the con-|
w: ev- er hope- less- ly|None hear the cry|ap- pal- ling? Brok- en|in spir-|
w: war- fare, rest comes at|Sweet rest for sol-|diers wear- y. Crown af-|ter con-|
 [FA]2 [FA]>[GB] [Ec]2 [Ec]2 | [EG]2 [EG]>[DA] [DB]4 | [Dd]2 [Dc]>[DA] [Dd]2 [DB]>[DG] | %11
w: fierce is the foe; Cow-|ards and trai- tors|will back- ward go: Brave men|
w: wound- ed by sin, Foe-|men a- round them,|and fear with- in; Speed ye|
w: ease af- ter pain: Part-|ing shall ne- ver|be known a- gain; Joy ev-|
 [DA]2 [Fd]2 D4 | [FA]2 [FA]>[GB] [Ec]2 [Ec]2 | [EG]2 [EG]>[DA] [DB]4 | %14
w: are want- ed,|all a- glow, Want- ed|to bat- tle for|
w: to help them|dom to win; Speed with|the Gos- pel of|
w: er- last- ing|shall ob- tain, All who|are faith- ful to|
 [Dd]2 [Dc]>[DA] [Dd]2 [DB]>[DG] | [Dd]4 [Dd]4 ||"^Refrain" D2 [DG]>[DB] [Gd]2 [Gd]2 | %17
w: Je- sus. * * * *|||
w: Je- sus. Sol- diers of God,|we join|you to- day, Join in|
w: Je- sus. * * * *|||
 [Ge]2 [Gd]>[GB] [DG]4 | [CB]2 [CA]>[CF] [CD]2 [CD]2 | E4 D4 | G2 [GB]>[Gd] (GB) [Gg]2 | %21
w: ||||
w: grand en- dea- vor.|Sol- diers of God, ad-|vance to|For the truth is * tri-|
w: ||||
 [Gg]2 [Ge]>[Gf] [Gg]2 G>[GA] | [GB]2 [GB]>[Ac] [FA]2 [DA]>[DB] | [DG]4 [DG]4 |] %24
w: |||
w: for ev- er. * * *|||
w: |||
V:2
 D2 x6 | x8 | x8 | E4 D4 | D2 x6 | x8 | x8 | x4 G4 | x8 | x8 | x8 | x4 D4 | x8 | x8 | x8 | x8 || %16
w: sound-|||ners are|bright,|||flict,||||hearts|||||
w: souls|||they for|plead?|||it,||||free-|||||
w: dan-|||ter the|last,|||flict,||||all|||||
 D2 x6 | x8 | x8 | E4 D4 | G2 g2 x4 | x6 G3/2 x/ | x8 | x8 |] %24
w: ||||||||
w: your|||the fray,|umph- ant||||
w: ||||||||
V:3
 [G,B,]2 [G,B,]>[G,D] [G,B,]2 [G,B,]2 | [C,C]2 [G,B,]>[G,D] [G,B,]4 | %2
 [D,F,]2 [D,F,]>[D,A,] [D,F,]2 [D,F,]2 | [G,B,]4 [G,B,]4 | [G,B,]2 [G,B,]>[G,D] [G,B,]2 [G,B,]2 | %5
 [C,C]2 [G,B,]>[G,D] [G,B,]4 | [D,C]2 [D,C]>[D,C] [D,A,]2 [D,C]2 | [D,C]4 [G,B,]4 | %8
 [D,D]2 [D,D]>[D,G,] [A,,A,]2 [A,,C]2 | [C,C]2 [C,C]>[C,F,] G,4 | %10
 [F,A,]2 [F,A,]>[F,A,] [G,B,]2 [G,B,]>[G,B,] | [F,D]2 [D,D]2 [D,F,]4 | %12
 [D,D]2 [D,D]>[D,G,] [A,,A,]2 [A,,C]2 | [C,C]2 [C,C]>[C,F,] G,4 | %14
 [F,A,]2 [F,A,]>[F,A,] [G,B,]2 [G,B,]>[G,B,] | [D,F,]2 [E,G,]2 [F,A,]2 [A,C]2 || %16
 [G,B,]2 [G,B,]>[G,D] [G,B,]2 [G,B,]2 | [C,C]2 [G,B,]>[G,D] [G,B,]4 | %18
 [D,F,]2 [D,F,]>[D,A,] [D,F,]2 [D,F,]2 | [G,B,]4 [G,B,]4 | [G,B,]2 [G,D]>[G,B,] (B,D) [B,,=F]2 | %21
 [C,E]2 [C,C]>[C,D] [C,E]2 [C,E]>[C,E] | [D,D]2 [D,D]>[D,E] [D,C]2 [D,C]>[D,C] | [G,C]4 [G,B,]4 |] %24
V:4
 x8 | x8 | x8 | x8 | x8 | x8 | x8 | x8 | x8 | x4 G,4 | x8 | x8 | x8 | x4 G,4 | x8 | x8 || x8 | x8 | %18
 x8 | x8 | x4 G,2 x2 | x8 | x8 | x8 |] %24

